src/assets/icons/home.svg

<svg xmlns="http://www.w3.org/2000/svg" viewBox="0 0 32 32"><path d="M24 6.06h-2v1.59l2 2zm-8-4.41l4 4V4.06h6v7.59l4.77 4.77-1.42 1.42L16 4.47 2.65 17.84l-1.42-1.42zM8 16v13h4V18h8v11h4V16h2v15h-8V20h-4v11H6V16z"/></svg>

<svg xmlns="http://www.w3.org/2000/svg" xmlns:xlink="http://www.w3.org/1999/xlink" width="32" height="32" viewBox="0 0 32 32">
  <g id="home">
    <path d="M24,6.06H22V7.65l2,2ZM16,1.65l4,4V4.06h6v7.59l4.77,4.77-1.42,1.42L16,4.47,2.65,17.84,1.23,16.42ZM8,16V29h4V18h8V29h4V16h2V31H18V20H14V31H6V16Z"/>
  </g>
</svg>
